img/encouraging-icon4.svg

<svg width="105" height="105" viewBox="0 0 105 105" fill="none" xmlns="http://www.w3.org/2000/svg">
<rect width="105" height="105" rx="52.5" fill="#11520B"/>
<path d="M37.9197 35.4985C37.9197 35.4982 37.9196 35.4979 37.9196 35.4976C37.8412 34.7948 37.998 34.1834 38.3948 33.6711C38.7917 33.1587 39.3019 32.8985 39.9193 32.9M37.9197 35.4985L44.1685 72.1H60.8657C61.6581 72.1 62.351 71.7959 62.9403 71.1947C63.5303 70.5928 63.8591 69.8299 63.9296 68.9124C63.9296 68.9121 63.9296 68.9118 63.9297 68.9115L67.0814 35.4981C67.0814 35.4979 67.0815 35.4977 67.0815 35.4974C67.1574 34.7961 66.9999 34.1855 66.6045 33.6734C66.2088 33.1608 65.6985 32.9 65.0801 32.9H39.9193M37.9197 35.4985L41.1064 68.9113L37.9197 35.4985ZM39.9193 32.9C39.9193 32.9 39.9193 32.9 39.9194 32.9L39.9191 33V32.9H39.9193ZM42.6311 69.8333H43.7229M42.7432 64.5167H62.2929L61.8895 68.6557C61.8441 68.9683 61.7224 69.2251 61.5262 69.4306C61.3308 69.6353 61.1089 69.7333 60.8565 69.7333H44.1795C43.9258 69.7333 43.7033 69.6352 43.508 69.4306C43.3119 69.2252 43.1908 68.9684 43.1465 68.6558L42.7432 64.5167ZM62.5145 62.15H42.5323L39.9354 35.2667H65.0311L62.5145 62.15Z" fill="white" stroke="white" stroke-width="0.2"/>
<path d="M66.1904 43.3815C66.4011 42.7241 66.0389 42.0204 65.3815 41.8096C64.7241 41.5989 64.0204 41.9611 63.8096 42.6185L66.1904 43.3815ZM40.901 48.8664C42.0013 47.7222 46.3504 45.1978 53.6878 46.7239L54.1969 44.2763C46.1496 42.6025 40.8833 45.2779 39.099 47.1336L40.901 48.8664ZM53.6878 46.7239C61.5813 48.3657 65.4057 45.8297 66.1904 43.3815L63.8096 42.6185C63.6328 43.1703 61.6879 45.8344 54.1969 44.2763L53.6878 46.7239Z" fill="white"/>
</svg>

<?xml version="1.0" encoding="utf-8"?>
<!-- Generator: Adobe Illustrator 25.4.1, SVG Export Plug-In . SVG Version: 6.00 Build 0)  -->
<svg version="1.1" id="Layer_1" xmlns="http://www.w3.org/2000/svg" xmlns:xlink="http://www.w3.org/1999/xlink" x="0px" y="0px"
	 viewBox="0 0 105 105" style="enable-background:new 0 0 105 105;" xml:space="preserve">
<style type="text/css">
	.st0{fill:#11520B;}
	.st1{fill:#FFFFFF;stroke:#FFFFFF;stroke-width:0.2;}
	.st2{fill:#FFFFFF;}
</style>
<path class="st0" d="M52.5,0L52.5,0c29,0,52.5,23.5,52.5,52.5l0,0c0,29-23.5,52.5-52.5,52.5l0,0C23.5,105,0,81.5,0,52.5l0,0
	C0,23.5,23.5,0,52.5,0z"/>
<path class="st1" d="M37.9,35.5C37.9,35.5,37.9,35.5,37.9,35.5c-0.1-0.7,0.1-1.3,0.5-1.8c0.4-0.5,0.9-0.8,1.5-0.8 M37.9,35.5
	l6.2,36.6h16.7c0.8,0,1.5-0.3,2.1-0.9c0.6-0.6,0.9-1.4,1-2.3c0,0,0,0,0,0l3.2-33.4c0,0,0,0,0,0c0.1-0.7-0.1-1.3-0.5-1.8
	c-0.4-0.5-0.9-0.8-1.5-0.8H39.9 M37.9,35.5l3.2,33.4L37.9,35.5z M39.9,32.9C39.9,32.9,39.9,32.9,39.9,32.9L39.9,32.9L39.9,32.9
	L39.9,32.9z M42.6,69.8h1.1 M42.7,64.5h19.5l-0.4,4.1c0,0.3-0.2,0.6-0.4,0.8c-0.2,0.2-0.4,0.3-0.7,0.3H44.2c-0.3,0-0.5-0.1-0.7-0.3
	c-0.2-0.2-0.3-0.5-0.4-0.8L42.7,64.5z M62.5,62.2h-20l-2.6-26.9H65L62.5,62.2z"/>
<path class="st2" d="M66.2,43.4c0.2-0.7-0.2-1.4-0.8-1.6c-0.7-0.2-1.4,0.2-1.6,0.8L66.2,43.4z M40.9,48.9c1.1-1.1,5.4-3.7,12.8-2.1
	l0.5-2.4c-8-1.7-13.3,1-15.1,2.9L40.9,48.9z M53.7,46.7c7.9,1.6,11.7-0.9,12.5-3.3l-2.4-0.8c-0.2,0.6-2.1,3.2-9.6,1.7L53.7,46.7z"/>
<path class="st2" d="M37.9,37.6l3.2,33c0,0,0,1.9,3.7,1.6l-1-2l-0.5-3l-3.3-28.1L37.9,37.6z"/>
</svg>
